lib/healthicons/icons/outline/symbols/health_data_security.svg

<svg fill="none" height="48" viewBox="0 0 48 48" width="48" xmlns="http://www.w3.org/2000/svg"><path clip-rule="evenodd" d="m20 4c-1.6569 0-3 1.34315-3 3h-3c-1.6569 0-3 1.34315-3 3v28c0 1.6569 1.3431 3 3 3h12v-2h-12c-.5523 0-1-.4477-1-1v-28c0-.55228.4477-1 1-1h3c0 1.6569 1.3431 3 3 3h8c1.6569 0 3-1.3431 3-3h3c.5523 0 1 .44772 1 1v15h2v-15c0-1.65685-1.3431-3-3-3h-3c0-1.65685-1.3431-3-3-3zm-1 3c0-.55228.4477-1 1-1h8c.5523 0 1 .44772 1 1v2c0 .55228-.4477 1-1 1h-8c-.5523 0-1-.44772-1-1zm4 12v-3h2v3h3v2h-3v3h-2v-3h-3v-2zm4 9c0-.5523.4477-1 1-1h12c.5523 0 1 .4477 1 1v6.7889c0 2.3405-1.1697 4.5261-3.1171 5.8244l-3.3282 2.2188c-.3359.2239-.7735.2239-1.1094 0l-3.3282-2.2188c-1.9474-1.2983-3.1171-3.4839-3.1171-5.8244zm2 1v5.7889c0 1.6718.8355 3.2329 2.2265 4.1603l2.7735 1.8489 2.7735-1.8489c1.391-.9274 2.2265-2.4885 2.2265-4.1603v-5.7889zm4.7071 7.7072 4-4-1.4143-1.4142-3.2928 3.2929-1.2929-1.2929-1.4143 1.4142 2 2c.3906.3905 1.0237.3905 1.4143 0z" fill="#333" fill-rule="evenodd"/></svg>

<svg width="48" height="48" viewBox="0 0 48 48" fill="none" xmlns="http://www.w3.org/2000/svg">
<path fill-rule="evenodd" clip-rule="evenodd" d="M20 4C18.3431 4 17 5.34315 17 7H14C12.3431 7 11 8.34315 11 10V38C11 39.6569 12.3431 41 14 41H26V39H14C13.4477 39 13 38.5523 13 38V10C13 9.44772 13.4477 9 14 9H17C17 10.6569 18.3431 12 20 12H28C29.6569 12 31 10.6569 31 9H34C34.5523 9 35 9.44772 35 10V25H37V10C37 8.34315 35.6569 7 34 7H31C31 5.34315 29.6569 4 28 4H20ZM19 7C19 6.44772 19.4477 6 20 6H28C28.5523 6 29 6.44772 29 7V9C29 9.55228 28.5523 10 28 10H20C19.4477 10 19 9.55228 19 9V7ZM23 19V16H25V19H28V21H25V24H23V21H20V19H23ZM27 28C27 27.4477 27.4477 27 28 27H40C40.5523 27 41 27.4477 41 28V34.7889C41 37.1294 39.8303 39.315 37.8829 40.6133L34.5547 42.8321C34.2188 43.056 33.7812 43.056 33.4453 42.8321L30.1171 40.6133C28.1697 39.315 27 37.1294 27 34.7889V28ZM29 29V34.7889C29 36.4607 29.8355 38.0218 31.2265 38.9492L34 40.7981L36.7735 38.9492C38.1645 38.0218 39 36.4607 39 34.7889V29H29ZM33.7071 36.7072L37.7071 32.7072L36.2928 31.293L33 34.5859L31.7071 33.293L30.2928 34.7072L32.2928 36.7072C32.6834 37.0977 33.3165 37.0977 33.7071 36.7072Z" fill="#333333"/>
</svg>
